X: 20321
Q: "Andante"
M: C
L: 1/16
K: G
(B3A)(B2d2) {c}B4A3G | E3DE2G2 {B}A4 (B3d) | e4 (ge3) (dB3) (A3G) | E4 (G3A) G6 A2 |\
(B3A)B3d {c}B4 (A2G2) | E3DE2G2 A4(B3d) | (e3d)(e3g) (dB3) (A3G) | E4 (G3A) G4 :|
|: (B3A) |\
(G3A)(B3c) d6e2 | (dB3)A2G2 d4 g3f | (e3f)(g3a) {g}f4 (e2d2) | B4e3f e6f2 |\
(g3f)(e2d2) {c}B4 (e3f/g/) | (dB3)TA3G {B}A4(B3d) | e3dB2e2 (dB3)TA3G | E4G3A G4 :|


